X: 3
T: The Old Woman Tossed Up in a Blanket
%S: s:2 b:13(6+7)
N: O'Neill's - 771, modified by Debby Knight
N: Condensed by John Chambers
N: Ornament (~) is a mordant
M: 6/8
R: Jig
K: A
"^A"[|]\
E |: "A"AcB Bce | fec "E7"B2A | "A"AcB cAB |[1,3 "F#m"cAF "D"~F2E :|[2,4 "E7"cAA "A"A2 :| "^B"|: a | "D"~f3 fea |
fea fec | "A (C#m)"ecf ecf | ecA "E7"B2 "^C"|| e | "A"aff "E"gee | "A"fec "E7"B2A | "A"AcB cAB | "E7"cAA "A"A2 :|

